X: 13
T: Banish Misfortune
Z: UPipes & harp
S: https://thesession.org/tunes/9#setting50042
R: jig
M: 6/8
L: 1/8
K: Dmix
de|:fed cAG|A2d cAG|F2D DED|FEF GFG|
AGA cAG|AGA cde|fed cAG|Ad^c d2 e:|
|:f2d d^cd|f2g agf|e2c cBc|e2f gfe|
f2g agf|e2f gfe|fed cAG|Ad^c d2 e:|
|:f2g e2f|d2e c2d|A3 G3|F2F GED|
c3 cAG|AGA cde|fed cAG|Ad^c d2 e:|

